!!!SOCIAL_FUNCTION:	bird dance songs
!!!PDT:	1956
!!!OTL: No_159_Switchgrass_Dance_Song_(i).krn
!!!LANG: Non-Tone
!!!LING_GROUP: Muskogean
!!!REG: Florida
**kern
*staff1
=1-
*clefF4
*k[f#c#g#d#a#]
*M3/4
2r
8.B\L
16G#\Jk
=2
4B\
4F#\
8.B\L
16G#\Jk
=3
4F#\
4C#/
16.F#\LL
32C#\JK
8F#\J
=4
4C#/
8C#/
8r
8.C#/L
16C#/Jk
=5
(8.G#\L
16F#\Jk)
4F#\
8.B\L
16G#\Jk
=6
4F#\
4C#/
16.F#\LL
32C#\JK
8F#\J
=7
4C#/
4C#/
4r
==
*-
